svg/device/stopwatch_line.svg

<?xml version="1.0" encoding="UTF-8"?>
<svg width="24px" height="24px" viewBox="0 0 24 24" version="1.1" xmlns="http://www.w3.org/2000/svg" xmlns:xlink="http://www.w3.org/1999/xlink">
    <title>stopwatch_line</title>
    <g id="页面-1" stroke="none" stroke-width="1" fill="none" fill-rule="evenodd">
        <g id="Device" transform="translate(-672.000000, 0.000000)" fill-rule="nonzero">
            <g id="stopwatch_line" transform="translate(672.000000, 0.000000)">
                 <path d="M24,0 L24,24 L0,24 L0,0 L24,0 Z M12.5934901,23.257841 L12.5819402,23.2595131 L12.5108777,23.2950439 L12.4918791,23.2987469 L12.4918791,23.2987469 L12.4767152,23.2950439 L12.4056548,23.2595131 C12.3958229,23.2563662 12.3870493,23.2590235 12.3821421,23.2649074 L12.3780323,23.275831 L12.360941,23.7031097 L12.3658947,23.7234994 L12.3769048,23.7357139 L12.4804777,23.8096931 L12.4953491,23.8136134 L12.4953491,23.8136134 L12.5071152,23.8096931 L12.6106902,23.7357139 L12.6232938,23.7196733 L12.6232938,23.7196733 L12.6266527,23.7031097 L12.609561,23.275831 C12.6075724,23.2657013 12.6010112,23.2592993 12.5934901,23.257841 L12.5934901,23.257841 Z M12.8583906,23.1452862 L12.8445485,23.1473072 L12.6598443,23.2396597 L12.6498822,23.2499052 L12.6498822,23.2499052 L12.6471943,23.2611114 L12.6650943,23.6906389 L12.6699349,23.7034178 L12.6699349,23.7034178 L12.678386,23.7104931 L12.8793402,23.8032389 C12.8914285,23.8068999 12.9022333,23.8029875 12.9078286,23.7952264 L12.9118235,23.7811639 L12.8776777,23.1665331 C12.8752882,23.1545897 12.8674102,23.1470016 12.8583906,23.1452862 L12.8583906,23.1452862 Z M12.1430473,23.1473072 C12.1332178,23.1423925 12.1221763,23.1452606 12.1156365,23.1525954 L12.1099173,23.1665331 L12.0757714,23.7811639 C12.0751323,23.7926639 12.0828099,23.8018602 12.0926481,23.8045676 L12.108256,23.8032389 L12.3092106,23.7104931 L12.3186497,23.7024347 L12.3186497,23.7024347 L12.3225043,23.6906389 L12.340401,23.2611114 L12.337245,23.2485176 L12.337245,23.2485176 L12.3277531,23.2396597 L12.1430473,23.1473072 Z" id="MingCute" fill-rule="nonzero"></path>
                <path d="M12,2 C12.9367,2 13.8495,2.10751 14.7263,2.31129 C15.2643,2.43631 15.599,2.97376 15.474,3.5117 C15.349,4.04965 14.8116,4.3844 14.2736,4.25938 C13.7873333,4.14636 13.2870222,4.06875333 12.7754519,4.02957333 L12.7005496,4.02686228 C14.3015174,4.15011916 15.7851975,4.69226392 17.0421,5.54388 L17.6484,4.93758 C18.0389,4.54705 18.6721,4.54705 19.0626,4.93758 C19.4531,5.3281 19.4531,5.96126 19.0626,6.35179 L18.5678,6.84657 C20.0763,8.45598 21,10.6201 21,13 C21,17.9706 16.9706,22 12,22 C7.02944,22 3,17.9706 3,13 C3,8.22816668 6.71366247,4.32370434 11.4085282,4.01912533 L11.2720221,4.0263633 C10.7438538,4.06399896 10.2276515,4.14287352 9.72635,4.25938 C9.1884,4.3844 8.65096,4.04965 8.52594,3.5117 C8.40092,2.97376 8.73566,2.43631 9.27361,2.31129 C10.1505,2.10751 11.0633,2 12,2 Z M12,6 C8.13401,6 5,9.13401 5,13 C5,16.866 8.13401,20 12,20 C15.866,20 19,16.866 19,13 C19,9.13401 15.866,6 12,6 Z M12,8 C12.51285,8 12.9355092,8.38604429 12.9932725,8.88337975 L13,9 L13,13 C13,13.5523 12.5523,14 12,14 C11.48715,14 11.0644908,13.613973 11.0067275,13.1166239 L11,13 L11,9 C11,8.44772 11.4477,8 12,8 Z" id="形状" fill="#09244B"></path>
            </g>
        </g>
    </g>
</svg>

<svg xmlns="http://www.w3.org/2000/svg" width="24" height="24"><g fill="none" fill-rule="nonzero"><path d="M24 0v24H0V0h24ZM12.593 23.258l-.011.002-.071.035-.02.004-.014-.004-.071-.035c-.01-.004-.019-.001-.024.005l-.004.01-.017.428.005.02.01.013.104.074.015.004.012-.004.104-.074.012-.016.004-.017-.017-.427c-.002-.01-.009-.017-.017-.018Zm.265-.113-.013.002-.185.093-.01.01-.003.011.018.43.005.012.008.007.201.093c.012.004.023 0 .029-.008l.004-.014-.034-.614c-.003-.012-.01-.02-.02-.022Zm-.715.002a.023.023 0 0 0-.027.006l-.006.014-.034.614c0 .012.007.02.017.024l.015-.002.201-.093.01-.008.004-.011.017-.43-.003-.012-.01-.01-.184-.092Z"/><path fill="#09244B" d="M12 2c.937 0 1.85.108 2.726.311a1 1 0 1 1-.452 1.948 9.982 9.982 0 0 0-1.499-.23l-.074-.002a8.95 8.95 0 0 1 4.341 1.517l.606-.606a1 1 0 1 1 1.415 1.414l-.495.495a9 9 0 1 1-7.16-2.827l-.136.006a9.948 9.948 0 0 0-1.546.233 1 1 0 0 1-.452-1.948C10.15 2.108 11.064 2 12 2Zm0 4a7 7 0 1 0 0 14 7 7 0 0 0 0-14Zm0 2a1 1 0 0 1 .993.883L13 9v4a1 1 0 0 1-1.993.117L11 13V9a1 1 0 0 1 1-1Z"/></g></svg>
